images/zhuyin/btn_sound_f.svg

<svg width="100" height="100" viewBox="0 0 100 100" fill="none" xmlns="http://www.w3.org/2000/svg">
<path d="M70.5 55C70.5 55 71.0149 60.9231 71.9998 64.5C73.8326 71.1558 84.4998 77 84.4998 77C84.4998 77 83.3677 68.5001 83.5 65.5001C83.6323 62.5001 85.5 58.0001 86.5 48.5001C87.5 39.0001 78 32.4451 78 32.4451C78 32.4451 78.6634 30.3901 77 28.9451C75.3366 27.5 73 28.9451 73 28.9451C71.6667 26.7784 65.5078 22 55.4998 22C44 22 41.4996 25.4453 39.4998 27.4452C37.5 29.4451 36.9998 34.9451 36.9998 34.9451M70.5 55C70.5 55 68.2546 57.9522 65.8493 61.5001M70.5 55C71.5001 53 72.5 43.9451 70.5 40.4451M36.9998 34.9451C36.9998 34.9451 36.9998 41.6667 36.9998 45L31.9998 52L35.9998 55L37.5 65L39.4998 66.5H46.9998V79H65.8493C65.8493 79 62.6569 72.0281 63.9998 65.5001C64.2747 64.1636 64.9731 62.7923 65.8493 61.5001M36.9998 34.9451C36.9998 34.9451 45.7401 36.0234 50.5 40.4451C55.6123 45.194 50.5 53.5001 57.5 58.0001C60.42 59.8772 65.8493 61.5001 65.8493 61.5001M31.9998 58.0001V62.5001M28.5 55.5001V64.5M25 48.5001V71.5001M21 53.5001V67.0001M17 51.5001V68.5001M13 56.5001V62.5001" stroke="#333333" stroke-width="2" stroke-linecap="round" stroke-linejoin="round"/>
</svg>

<svg xmlns="http://www.w3.org/2000/svg" width="100" height="100" fill="none"><path stroke="#333" stroke-linecap="round" stroke-linejoin="round" stroke-width="2" d="M70.5 55s.515 5.923 1.5 9.5C73.833 71.156 84.5 77 84.5 77s-1.132-8.5-1-11.5c.132-3 2-7.5 3-17S78 32.445 78 32.445s.663-2.055-1-3.5c-1.663-1.445-4 0-4 0C71.667 26.778 65.508 22 55.5 22c-11.5 0-14 3.445-16 5.445-2 2-2.5 7.5-2.5 7.5M70.5 55s-2.245 2.952-4.65 6.5M70.5 55c1-2 2-11.055 0-14.555m-33.5-5.5V45l-5 7 4 3 1.5 10 2 1.5H47V79h18.85S62.656 72.028 64 65.5c.275-1.336.973-2.708 1.85-4M37 34.945s8.74 1.078 13.5 5.5c5.112 4.749 0 13.055 7 17.555 2.92 1.877 8.35 3.5 8.35 3.5M32 58v4.5m-3.5-7v9m-3.5-16v23m-4-18V67m-4-15.5v17m-4-12v6"/></svg>
